X:2
T:Hare in the Corn, The
T:Old Hag in the Corner, The
T:Rathawaun Jig, The
R:slide
D:Planxty
D:Chieftains: Live
Z:id:hn-slide-2
M:6/8
K:D
F2A AFA|BdB AFD|F2E EDE|F2D D2E|
F2A AFA|BdB AFA|Bcd edB|1 d3 dAG:|2 d3 d2e||
|:f2f fef|g2e ede|f2f fed|~a3 bag|
~f3 fef|g2e edB|ABd edB|1 d3 d2g:|2 d3 dAG||
<end>
<start>
